logos/rainmeter.svg

<svg xmlns="http://www.w3.org/2000/svg" style="isolation:isolate" width="72" height="72"><defs><clipPath id="a"><path d="M0 0h72v72H0z"/></clipPath></defs><g clip-path="url(#a)"><path d="M52.333 47.456c0 9.022-7.327 16.363-16.333 16.363-9.006 0-16.333-7.341-16.333-16.363 0-.149.009-.35.035-.603 1.029-1.468 6.278-7.827 15.566-.393 10.417 8.339 16.909 0 16.909 0h.074c.064.452.082.777.082.996zm8.167 0C60.5 60.99 49.51 72 36 72S11.5 60.99 11.5 47.456c0-12.967 22.029-43.993 22.967-45.307L36 0l1.533 2.149C38.471 3.463 60.5 34.489 60.5 47.456zm-3.769 0c0-9.042-13.772-30.849-20.731-40.924-6.959 10.076-20.731 31.886-20.731 40.924 0 11.452 9.3 20.768 20.731 20.768 11.431 0 20.731-9.316 20.731-20.768z" fill="#FFF"/></g></svg>

<?xml version="1.0" standalone="no"?><!-- Generator: Gravit.io --><svg xmlns="http://www.w3.org/2000/svg" xmlns:xlink="http://www.w3.org/1999/xlink" style="isolation:isolate" viewBox="0 0 72 72" width="72" height="72"><defs><clipPath id="_clipPath_Jcmw4oxLcjgtmqU083OZzL0VMxKqXHBm"><rect width="72" height="72"/></clipPath></defs><g clip-path="url(#_clipPath_Jcmw4oxLcjgtmqU083OZzL0VMxKqXHBm)"><path d=" M 52.333 47.456 C 52.333 56.478 45.006 63.819 36 63.819 C 26.994 63.819 19.667 56.478 19.667 47.456 C 19.667 47.307 19.676 47.106 19.702 46.853 C 20.731 45.385 25.98 39.026 35.268 46.46 C 45.685 54.799 52.177 46.46 52.177 46.46 L 52.251 46.46 C 52.315 46.912 52.333 47.237 52.333 47.456 Z  M 60.5 47.456 C 60.5 60.99 49.51 72 36 72 C 22.49 72 11.5 60.99 11.5 47.456 C 11.5 34.489 33.529 3.463 34.467 2.149 L 36 0 L 37.533 2.149 C 38.471 3.463 60.5 34.489 60.5 47.456 Z  M 56.731 47.456 C 56.731 38.414 42.959 16.607 36 6.532 C 29.041 16.608 15.269 38.418 15.269 47.456 C 15.269 58.908 24.569 68.224 36 68.224 C 47.431 68.224 56.731 58.908 56.731 47.456 Z " fill="rgb(255,255,255)"/></g></svg>
